X: 210
T: No_67_Alligator_Dance_Song_(c).krn
N: Derived from No_67_Alligator_Dance_Song_(c).krn
%%abc-version 2.0
%%abcx-abcm2ps-target-version 5.9.1 (29 Sep 2008)
%%abc-creator hum2abc beta
%%abcx-conversion-date 2019/03/15 08:38:45
%%humdrum-veritas 3252935825
%%humdrum-veritas-data 826488949
%%linebreak <none>
%%barnumbers 0
L: 1/16
M: 3/4
K: G clef=bass
[K:clef=bass][M:3/4]z8B,B,B,C ]|:  
B,6A,G, B,B,2A, ||  
[M:2/4]G,E,3- E,3D, ||  
[M:3/4]E,2 z2 E,E,G,3/E,/ B,B,A,3/G,/ ||  
[M:2/4]G,E,3 E,2 z E, ||  
[M:3/4]G,2E,3/G,/ G,E,2B, B,2B,3/B,/ :|]  



